X:1
T:Title
%%score { ( 1 3 ) | ( 2 4 ) }
L:1/8
M:4/4
K:Db
V:1 treble nm="Grand Piano"
V:3 treble 
V:2 bass 
V:4 bass 
V:1
 z4 z2 z[Q:1/4=94] F | F2 ED A2 GF | [Fd]2 [Gc][GB] [FA]3 [DF] | [FA]2 [GB][FA] [FA]2 EF | %4
 G2 [CB]>[CA] [DA]3 [DF] | [FA]2 [FA][GB] [FA]2 [DF][FA] | B2 dd c3 [Gc] | %7
 [Fd]2 [Ac][GB] [FA]2 [A,DF][A,D] |[M:7/8] [DF]2 [A,DF]>[K:bass][G,CE] [F,D]3 | %9
[M:1/8][K:treble] [A,FA] |[M:4/4] [Fd]2 [Gd][Ad] [Gd]2 [Ac][GB] | [FA]6 z2 | G6 z2 | A6 z2 | %14
 [Fd]2 [Gd][Ad] [Gd]2 [DGc][DGB] |[M:9/8] .[FA]6 z3[Q:1/4=93] | %16
[M:4/4][Q:1/4=91] F2[Q:1/4=86] F>[Q:1/4=82]F[Q:1/4=80] F2[Q:1/4=75] [DF]>[CE][Q:1/4=90][Q:1/4=88][Q:1/4=87][Q:1/4=84][Q:1/4=83][Q:1/4=79][Q:1/4=77][Q:1/4=76][Q:1/4=73][Q:1/4=72] | %17
[M:7/8] D-D-D- D3 z |] %18
V:2
 z4 z2 z [D,A,D] | [D,A,D]2 [D,G,C][D,F,] [D,F,D]2 [D,B,D][D,A,D] | %2
 [D,A,]2 [D,D][D,D] [D,D]3 [D,A,] | [D,D]2 [D,D][D,D] [D,A,]2 [G,A,C][F,A,D] | %4
 [E,A,C]2 [A,,G,]>[A,,G,] [D,F,]3 [D,A,] | [D,D]2 [D,D][D,D] [D,D]2 [D,A,][D,D] | %6
 [G,DG]2 [=G,B,E][G,B,E] [A,E]3 [A,,A,] | [D,A,]2 [D,D][D,D] [D,D]2 D,F, |[M:7/8] A,2 A,,>A,, D,3 | %9
[M:1/8] D, |[M:4/4] [D,A,]2 [E,A,][F,A,] [G,B,]2 [G,D][G,D] | [D,D]2 D,D, D,2[K:treble] CD | %12
 E6 z2 | F6[K:bass] z2 | [D,A,]2 [E,A,][F,A,] [G,B,]2 G,G, | %15
[M:9/8] D,2 D, D, [D,A,D]2- [D,A,D][F,A,][G,B,D] | %16
[M:4/4] [A,D]2 [A,D]>[A,D] [A,D]2 [A,,A,]>[A,,G,] |[M:7/8] [D,F,]-[D,F,]-[D,F,]- [D,F,]3 z |] %18
V:3
 x8 | x8 | x8 | x8 | x8 | x8 | x8 | x8 |[M:7/8] x7/2[K:bass] x7/2 |[M:1/8][K:treble] x | %10
[M:4/4] x8 | z2 DD D2 EF | z2 CC C2 FB | z2 DD D2 [DFA]2 | x8 |[M:9/8] D2 D D F2- FDE |[M:4/4] x8 | %17
[M:7/8] x7 |] %18
V:4
 x8 | x8 | x8 | x8 | x8 | x8 | x8 | x8 |[M:7/8] x7 |[M:1/8] x |[M:4/4] x8 | x6[K:treble] x2 | %12
 z2 A,A, A,2 DG | z2[K:bass] D,D, D,2 D,2 | x8 |[M:9/8] x9 |[M:4/4] x8 |[M:7/8] x7 |] %18

